svgs/duotone/hand-point-down.svg

<svg xmlns="http://www.w3.org/2000/svg" viewBox="0 0 448 512"><!-- Font Awesome Pro 6.0.0-alpha2 by @fontawesome - https://fontawesome.com License - https://fontawesome.com/license (Commercial License) --><defs><style>.fa-secondary{opacity:.4}</style></defs><path d="M72 272C69.26 272 66.66 271.492 64 271.193V480C64 497.672 78.312 512 96 512S128 497.672 128 480V272H72ZM384 160C395.717 160 406.553 163.381 416 168.879V136C416 60.889 355.111 0 280 0L191.281 0C162.516 0 134.489 9.107 111.219 26.016L74.812 52.469C48 72.031 32 103.469 32 136.594V200C32 222.091 49.909 240 72 240H200C222.094 240 240 222.094 240 200C240 171.266 213.28 160 197.724 160L128 160C119.163 160 112 152.837 112 144V144C112 135.163 119.163 128 128 128H200C237.869 128 268.594 157.354 271.447 194.51C276.762 193.08 282.234 192 288 192C301.275 192 313.602 196.047 323.826 202.969C332.559 178.014 356.066 160 384 160Z" class="fa-secondary"/><path d="M288 224C270.312 224 256 238.328 256 256V320C256 337.672 270.312 352 288 352S320 337.672 320 320V256C320 238.328 305.688 224 288 224ZM160 272V352C160 369.672 174.312 384 192 384S224 369.672 224 352V267.59C216.459 270.271 208.459 272 200 272H160ZM384 192C366.312 192 352 206.328 352 224V288C352 305.672 366.312 320 384 320S416 305.672 416 288V224C416 206.328 401.688 192 384 192Z" class="fa-primary"/></svg>

<svg xmlns="http://www.w3.org/2000/svg" viewBox="0 0 448 512"><!--! Font Awesome Pro 6.3.0 by @fontawesome - https://fontawesome.com License - https://fontawesome.com/license (Commercial License) Copyright 2023 Fonticons, Inc. --><defs><style>.fa-secondary{opacity:.4}</style></defs><path class="fa-primary" d="M288 224c-17.69 0-32 14.33-32 32v64c0 17.67 14.31 32 32 32s32-14.33 32-32V256C320 238.3 305.7 224 288 224zM160 272V352c0 17.67 14.31 32 32 32s32-14.33 32-32V267.6C216.5 270.3 208.5 272 200 272H160zM384 192c-17.69 0-32 14.33-32 32v64c0 17.67 14.31 32 32 32s32-14.33 32-32V224C416 206.3 401.7 192 384 192z"/><path class="fa-secondary" d="M72 272C69.26 272 66.66 271.5 64 271.2V480c0 17.67 14.31 32 32 32s32-14.33 32-32V272H72zM384 160c11.72 0 22.55 3.381 32 8.879V136C416 60.89 355.1 0 280 0L191.3 0C162.5 0 134.5 9.107 111.2 26.02L74.81 52.47C48 72.03 32 103.5 32 136.6V200C32 222.1 49.91 240 72 240h128c22.09 0 39.1-17.91 39.1-39.1c0-28.73-26.72-40-42.28-40l-69.72 0C119.2 160 112 152.8 112 144S119.2 128 127.1 128H200c37.87 0 68.59 29.35 71.45 66.51C276.8 193.1 282.2 192 288 192c13.28 0 25.6 4.047 35.83 10.97C332.6 178 356.1 160 384 160z"/></svg>
